public/svg/groups/anime-manga.svg

<svg xmlns="http://www.w3.org/2000/svg" viewBox="0 0 50 50">
  <path d="M 32.84375 1.96875 A 1.0001 1.0001 0 0 0 32.28125 2.28125 L 28.0625 6.5 L 24.78125 2.375 A 1.0001 1.0001 0 0 0 23.90625 2 A 1.0001 1.0001 0 0 0 23.15625 2.5 L 20.65625 6.65625 L 14.5 3.125 A 1.0001 1.0001 0 0 0 13 4.15625 L 13.78125 8.8125 L 8.15625 8 A 1.0001 1.0001 0 0 0 7.15625 9.5 L 9.59375 13.5625 L 4.5625 16.09375 A 1.0001 1.0001 0 0 0 4.8125 17.96875 L 8.625 18.71875 L 7.0625 22.625 A 1.0001 1.0001 0 0 0 8.5 23.875 L 9 23.59375 L 9 26.09375 L 9 26.1875 C 9.06875 26.875 9.5274658 27.477783 10.125 27.78125 C 9.9557432 27.915519 9.7630068 28.086824 9.59375 28.3125 C 9.09375 29.0125 8.80625 30.1125 8.90625 31.3125 C 9.30625 34.9125 11.6125 36.2 12.3125 36.5 C 12.6125 38.2 13.40625 40.2125 14.90625 42.3125 C 16.40625 44.6125 23.40625 47.90625 24.90625 47.90625 C 26.40625 47.90625 33.40625 44.5125 34.90625 42.3125 C 36.30625 40.2125 37.10625 38.1 37.40625 36.5 C 38.10625 36.2 40.40625 34.9125 40.90625 31.3125 C 41.00625 30.1125 40.6875 29.0125 40.1875 28.3125 C 40.047456 28.125774 39.921294 27.963655 39.78125 27.84375 C 40.429447 27.558229 40.92739 26.913603 41 26.1875 L 41 26.09375 L 41 24.03125 A 1.0001 1.0001 0 0 0 41.9375 22.625 L 40.3125 18.5625 L 44.375 16.9375 A 1.0001 1.0001 0 0 0 44.4375 15.09375 L 39.34375 12.53125 L 41.8125 7.4375 A 1.0001 1.0001 0 0 0 40.625 6.03125 L 34.8125 7.71875 L 34 2.84375 A 1.0001 1.0001 0 0 0 32.84375 1.96875 z M 24.09375 4.71875 L 27.21875 8.625 A 1.0001 1.0001 0 0 0 28.71875 8.71875 L 32.3125 5.125 L 33 9.15625 A 1.0001 1.0001 0 0 0 34.28125 9.96875 L 39 8.59375 L 37.09375 12.5625 A 1.0001 1.0001 0 0 0 37.5625 13.90625 L 41.53125 15.90625 L 38.625 17.0625 A 1.0001 1.0001 0 0 0 38.0625 18.375 L 38.84375 20.3125 L 34.71875 18.25 L 34.40625 18.09375 A 1.0001 1.0001 0 0 0 34.3125 18.03125 C 34.264175 18.010174 34.193934 18.002757 34.125 18 C 34.095703 17.998828 34.066479 18.000073 34.03125 18 A 1.0001 1.0001 0 0 0 34 18 L 15 18 C 14.966667 18 14.93912 17.999537 14.90625 18 C 14.782703 18.00174 14.679634 18.023096 14.59375 18.0625 C 14.565385 18.075514 14.52069 18.07306 14.5 18.09375 L 13.46875 18.71875 L 10 20.6875 L 10.9375 18.375 A 1.0001 1.0001 0 0 0 10.1875 17.03125 L 8.03125 16.59375 L 11.4375 14.90625 A 1.0001 1.0001 0 0 0 11.84375 13.5 L 9.9375 10.3125 L 14.84375 11 A 1.0001 1.0001 0 0 0 16 9.84375 L 15.34375 5.9375 L 20.5 8.875 A 1.0001 1.0001 0 0 0 21.84375 8.5 L 24.09375 4.71875 z M 19 20 L 31 20 C 32.1 20 33 20.9 33 22 L 33 24 C 33 25.1 32.1 26 31 26 L 19 26 C 17.9 26 17 25.1 17 24 L 17 22 C 17 20.9 17.9 20 19 20 z M 12.65625 28 L 37.3125 28 C 37.371737 28.223885 37.477885 28.436538 37.6875 28.59375 C 37.8875 28.69375 38.3 29.00625 38.5 29.40625 C 38.8 29.80625 39.00625 30.29375 38.90625 31.09375 C 38.50625 34.29375 36.3125 34.90625 36.3125 34.90625 C 36.065309 34.968048 35.899283 35.147216 35.78125 35.34375 C 35.332932 35.081527 34.834214 34.871423 34.34375 34.6875 C 33.275342 34.286847 32.25 34.03125 32.25 34.03125 A 1.0001 1.0001 0 0 0 31.84375 34 A 1.0001 1.0001 0 0 0 31.75 35.96875 C 31.75 35.96875 32.724658 36.213153 33.65625 36.5625 C 34.122046 36.737174 34.570383 36.954145 34.84375 37.125 C 34.948182 37.19027 34.996171 37.21872 35.03125 37.25 A 1.0001 1.0001 0 0 0 35.125 37.46875 C 34.914574 38.030894 34.638926 38.631086 34.3125 39.28125 C 33.949989 38.828111 33.511417 38.43825 33.09375 38.125 C 32.258417 37.4985 31.4375 37.09375 31.4375 37.09375 A 1.0001 1.0001 0 0 0 30.875 37 A 1.0001 1.0001 0 0 0 30.5625 38.90625 C 30.5625 38.90625 31.241583 39.2515 31.90625 39.75 C 32.238583 39.99925 32.550011 40.281264 32.75 40.53125 C 32.949989 40.781236 33 40.958333 33 41 A 1.0001 1.0001 0 0 0 33.09375 41.40625 C 32.746288 41.842981 32.244833 42.278525 31.65625 42.71875 C 31.411544 42.249605 31.086617 41.842824 30.78125 41.46875 C 30.234887 40.799456 29.6875 40.28125 29.6875 40.28125 A 1.0001 1.0001 0 0 0 28.75 40 A 1.0001 1.0001 0 0 0 28.3125 41.71875 C 28.3125 41.71875 28.765113 42.163044 29.21875 42.71875 C 29.582908 43.164844 29.808797 43.656697 29.90625 43.84375 C 27.84413 45.056757 25.586859 46 25 46 C 24.411252 46 22.129868 45.073327 20.0625 43.875 C 20.142751 43.728041 20.396283 43.190335 20.78125 42.71875 C 21.234887 42.163044 21.6875 41.71875 21.6875 41.71875 A 1.0001 1.0001 0 0 0 20.8125 40 A 1.0001 1.0001 0 0 0 20.3125 40.28125 C 20.3125 40.28125 19.765113 40.799456 19.21875 41.46875 C 18.905533 41.85244 18.558127 42.264335 18.3125 42.75 C 17.737257 42.327875 17.246556 41.880564 16.90625 41.46875 A 1.0001 1.0001 0 0 0 17 41 C 17 40.95833 17.05001 40.781236 17.25 40.53125 C 17.449989 40.281264 17.761417 39.99925 18.09375 39.75 C 18.758417 39.2515 19.4375 38.90625 19.4375 38.90625 A 1.0030471 1.0030471 0 1 0 18.8125 37 A 1.0001 1.0001 0 0 0 18.5625 37.09375 C 18.5625 37.09375 17.741583 37.4985 16.90625 38.125 C 16.488583 38.43825 16.050011 38.828111 15.6875 39.28125 C 15.664843 39.309571 15.647294 39.345854 15.625 39.375 C 15.28999 38.738819 15.026153 38.146532 14.8125 37.59375 A 1.0001 1.0001 0 0 0 14.96875 37.25 C 15.00383 37.21872 15.05182 37.19027 15.15625 37.125 C 15.429617 36.954145 15.877954 36.737174 16.34375 36.5625 C 17.275342 36.213153 18.25 35.96875 18.25 35.96875 A 1.0083877 1.0083877 0 1 0 17.8125 34 A 1.0001 1.0001 0 0 0 17.75 34.03125 C 17.75 34.03125 16.724658 34.286847 15.65625 34.6875 C 15.143916 34.879625 14.619113 35.095284 14.15625 35.375 C 14.03121 35.194717 13.831952 35.059551 13.59375 35 C 13.59375 35 11.4 34.29375 11 31.09375 C 10.9 30.29375 11.10625 29.80625 11.40625 29.40625 C 11.70625 29.00625 11.9875 28.69375 12.1875 28.59375 C 12.4243 28.47535 12.601131 28.266436 12.65625 28 z M 19.5 29 C 18.671573 29 18 29.671573 18 30.5 C 18 31.328427 18.671573 32 19.5 32 C 20.328427 32 21 31.328427 21 30.5 C 21 29.671573 20.328427 29 19.5 29 z M 30.5 29 C 29.671573 29 29 29.671573 29 30.5 C 29 31.328427 29.671573 32 30.5 32 C 31.328427 32 32 31.328427 32 30.5 C 32 29.671573 31.328427 29 30.5 29 z"></path>
</svg>

<svg xmlns="http://www.w3.org/2000/svg" viewBox="0 0 50 50"><path d="M32.844 1.97a1 1 0 0 0-.563.31L28.063 6.5l-3.28-4.125A1 1 0 0 0 23.905 2a1 1 0 0 0-.75.5l-2.5 4.156-6.156-3.53a1 1 0 0 0-1.5 1.03l.78 4.657L8.157 8a1 1 0 0 0-1 1.5l2.438 4.063-5.03 2.53a1 1 0 0 0 .248 1.876l3.813.75-1.563 3.905a1 1 0 0 0 1.438 1.25l.5-.28v2.593c.07.687.527 1.29 1.125 1.593-.17.136-.362.307-.53.532-.5.7-.79 1.8-.69 3 .4 3.6 2.708 4.888 3.408 5.188.3 1.7 1.093 3.712 2.593 5.813 1.5 2.3 8.5 5.593 10 5.593s8.5-3.393 10-5.593c1.4-2.1 2.2-4.213 2.5-5.813.7-.3 3-1.587 3.5-5.188.1-1.2-.218-2.3-.718-3-.14-.186-.267-.348-.407-.468.65-.286 1.147-.93 1.22-1.657v-2.156a1 1 0 0 0 .938-1.405l-1.626-4.063 4.063-1.625a1 1 0 0 0 .063-1.843l-5.094-2.563 2.468-5.092a1 1 0 0 0-1.187-1.407l-5.813 1.69L34 2.843a1 1 0 0 0-1.156-.875zm-8.75 2.75l3.125 3.905a1 1 0 0 0 1.5.094l3.593-3.595.687 4.03a1 1 0 0 0 1.28.814L39 8.593l-1.906 3.97a1 1 0 0 0 .468 1.342l3.97 2-2.907 1.156a1 1 0 0 0-.563 1.313l.782 1.938-4.125-2.063-.314-.156a1 1 0 0 0-.093-.063c-.05-.02-.12-.027-.188-.03h-.094a1 1 0 0 0-.03 0H14.906c-.123.002-.226.023-.312.063-.03.013-.073.01-.094.03l-1.03.626L10 20.687l.938-2.313a1 1 0 0 0-.75-1.344l-2.157-.436 3.408-1.688a1 1 0 0 0 .406-1.406l-1.906-3.188 4.906.688A1 1 0 0 0 16 9.844l-.656-3.906L20.5 8.874a1 1 0 0 0 1.344-.375l2.25-3.78zM19 20h12c1.1 0 2 .9 2 2v2c0 1.1-.9 2-2 2H19c-1.1 0-2-.9-2-2v-2c0-1.1.9-2 2-2zm-6.344 8h24.657c.06.224.165.437.374.594.2.1.613.412.813.812.3.4.506.888.406 1.688-.4 3.2-2.593 3.812-2.593 3.812-.248.062-.414.24-.532.438-.447-.262-.946-.473-1.436-.657-1.07-.4-2.094-.656-2.094-.656a1 1 0 0 0-.406-.03 1 1 0 0 0-.094 1.97s.975.243 1.906.593c.466.174.914.39 1.188.562.104.065.152.094.187.125a1 1 0 0 0 .095.22c-.21.56-.486 1.16-.813 1.81-.362-.452-.8-.842-1.218-1.155-.836-.627-1.657-1.03-1.657-1.03a1 1 0 0 0-.562-.095 1 1 0 0 0-.313 1.906s.68.346 1.344.844c.333.25.644.53.844.78.2.25.25.428.25.47a1 1 0 0 0 .094.406c-.348.437-.85.873-1.438 1.313-.244-.47-.57-.877-.875-1.25-.545-.67-1.093-1.19-1.093-1.19a1 1 0 0 0-.937-.28 1 1 0 0 0-.438 1.72s.453.443.907 1c.363.445.59.937.686 1.124C27.844 45.057 25.586 46 25 46c-.59 0-2.87-.927-4.938-2.125.08-.147.334-.685.72-1.156.453-.557.905-1 .905-1a1 1 0 0 0-.875-1.72 1 1 0 0 0-.5.28s-.547.52-1.093 1.19c-.314.382-.662.794-.907 1.28-.576-.422-1.066-.87-1.407-1.28A1 1 0 0 0 17 41c0-.042.05-.22.25-.47.2-.25.51-.53.844-.78.664-.498 1.343-.844 1.343-.844A1.003 1.003 0 1 0 18.813 37a1 1 0 0 0-.25.094s-.82.404-1.656 1.03c-.417.314-.856.704-1.218 1.157-.023.03-.04.066-.063.095-.335-.636-.6-1.228-.813-1.78a1 1 0 0 0 .157-.345c.034-.03.082-.06.186-.125.274-.17.722-.388 1.188-.563.93-.35 1.906-.593 1.906-.593a1.008 1.008 0 1 0-.438-1.97 1 1 0 0 0-.062.03s-1.025.257-2.094.657c-.512.193-1.037.408-1.5.688-.125-.18-.324-.315-.562-.375 0 0-2.194-.706-2.594-3.906-.1-.8.106-1.288.406-1.688.3-.4.582-.712.78-.812.238-.12.415-.328.47-.594zm6.844 1c-.828 0-1.5.672-1.5 1.5s.672 1.5 1.5 1.5 1.5-.672 1.5-1.5-.672-1.5-1.5-1.5zm11 0c-.828 0-1.5.672-1.5 1.5s.672 1.5 1.5 1.5 1.5-.672 1.5-1.5-.672-1.5-1.5-1.5z"/></svg>
